components/Common/Svg/svgs/tools.svg

<svg width="40" height="40" viewBox="0 0 40 40" fill="none" xmlns="http://www.w3.org/2000/svg">
<path fill-rule="evenodd" clip-rule="evenodd" d="M12.3518 5.28072C13.7906 4.92631 15.2986 4.9056 16.7585 5.22932C18.7221 5.6647 20.501 6.70144 21.8478 8.19521C23.1945 9.68898 24.042 11.5655 24.2723 13.5635C24.5017 15.554 24.1072 17.5664 23.1436 19.3227C22.9031 19.7356 22.9881 20.2659 23.3544 20.5823L34.1465 29.9041C34.6936 30.4644 35.0002 31.2169 35 32.0008C34.9998 32.7962 34.6837 33.5589 34.1213 34.1213C33.5589 34.6837 32.7962 34.9998 32.0008 35C31.2169 35.0002 30.4644 34.6936 29.9041 34.1465L20.5822 23.3543C20.2637 22.9856 19.7298 22.9028 19.3173 23.1466C17.5623 24.108 15.5519 24.5015 13.5634 24.2723C11.5655 24.042 9.68897 23.1945 8.1952 21.8477C6.70143 20.501 5.6647 18.7221 5.22932 16.7585C4.9056 15.2986 4.92631 13.7906 5.28072 12.3518L11.1326 18.2037C11.369 18.4401 11.7079 18.5427 12.0358 18.4772L16.7499 17.5343C17.1457 17.4552 17.4552 17.1457 17.5343 16.7499L18.4772 12.0358C18.5427 11.7079 18.4401 11.369 18.2037 11.1326L12.3518 5.28072ZM19.5797 25.2534C17.6351 26.1549 15.4743 26.5058 13.3344 26.2591C10.9232 25.9812 8.65868 24.9584 6.85599 23.3332C5.0533 21.7079 3.80217 19.5611 3.27674 17.1915C2.75132 14.8219 2.97776 12.3474 3.92453 10.1125C4.02799 9.86829 4.22424 9.67517 4.4701 9.57565C4.71597 9.47614 4.99129 9.47837 5.23551 9.58187L5.23619 9.58216C5.35458 9.63233 5.46218 9.70486 5.5531 9.79578L12.1684 16.411L15.7039 15.7039L16.411 12.1684L9.79578 5.5531C9.70617 5.46349 9.63441 5.35767 9.58432 5.24126L9.58403 5.24058C9.47881 4.99606 9.47543 4.71968 9.57463 4.47266C9.67382 4.22564 9.86742 4.02837 10.1125 3.92453C12.3474 2.97776 14.8219 2.75132 17.1915 3.27675C19.5611 3.80217 21.7079 5.0533 23.3332 6.856C24.9584 8.65869 25.9812 10.9232 26.2591 13.3344C26.5058 15.4743 26.1549 17.6351 25.2534 19.5798L35.4837 28.4164C35.5023 28.4324 35.5202 28.4491 35.5375 28.4664C36.4743 29.4043 37.0004 30.6758 37 32.0014C36.9996 33.327 36.4729 34.5982 35.5355 35.5355C34.5982 36.4729 33.327 36.9996 32.0014 37C30.6758 37.0004 29.4043 36.4743 28.4664 35.5375C28.4491 35.5202 28.4324 35.5023 28.4164 35.4837L19.5797 25.2534Z" fill="#161616"/>
</svg>

<svg width="40" height="40" viewBox="0 0 40 40" fill="none" xmlns="http://www.w3.org/2000/svg"><path fill-rule="evenodd" clip-rule="evenodd" d="M12.352 5.28a9.671 9.671 0 0 1 10.792 14.043 1 1 0 0 0 .21 1.26l10.793 9.321a3 3 0 0 1-4.243 4.243l-9.322-10.793a1 1 0 0 0-1.265-.207A9.671 9.671 0 0 1 5.281 12.352l5.852 5.852a1 1 0 0 0 .903.273l4.714-.943a1 1 0 0 0 .784-.784l.943-4.714a1 1 0 0 0-.273-.903L12.352 5.28Zm7.228 19.973a11.671 11.671 0 0 1-15.655-15.14 1 1 0 0 1 1.31-.531h.001a1 1 0 0 1 .317.214l6.615 6.615 3.536-.707.707-3.536-6.615-6.615a1 1 0 0 1 .317-1.629 11.67 11.67 0 0 1 15.14 15.656l10.23 8.836a5 5 0 1 1-7.067 7.067l-8.836-10.23Z" fill="#161616"/></svg>
